cla-icons/pause.svg

<?xml version="1.0" encoding="UTF-8" standalone="no"?>
<svg width="512px" height="512px" viewBox="0 0 512 512" version="1.1" xmlns="http://www.w3.org/2000/svg" xmlns:xlink="http://www.w3.org/1999/xlink" xmlns:sketch="http://www.bohemiancoding.com/sketch/ns">
    <!-- Generator: Sketch 3.1 (8751) - http://www.bohemiancoding.com/sketch -->
    <title>pause</title>
    <desc>Created with Sketch.</desc>
    <defs></defs>
    <g id="Page-1" stroke="none" stroke-width="1" fill="none" fill-rule="evenodd" sketch:type="MSPage">
        <g id="pause" sketch:type="MSArtboardGroup" fill="#000000">
            <path d="M372.009,0 L139.991,0 C62.676,0 0,62.685 0,139.991 L0,372.009 C0,449.324 62.685,512 139.991,512 L372.009,512 C449.324,512 512,449.315 512,372.009 L512,139.991 C512,62.676 449.315,0 372.009,0 L372.009,0 Z M145,107 L215,107 L215,404.429 L145,404.429 L145,107 Z M305,107 L375,107 L375,404.429 L305,404.429 L305,107 Z" id="Imported-Layers" sketch:type="MSShapeGroup"></path>
        </g>
    </g>
</svg>

<?xml version="1.0" encoding="utf-8"?>
<!-- Generator: Adobe Illustrator 18.0.0, SVG Export Plug-In . SVG Version: 6.00 Build 0)  -->
<!DOCTYPE svg PUBLIC "-//W3C//DTD SVG 1.1//EN" "http://www.w3.org/Graphics/SVG/1.1/DTD/svg11.dtd">
<svg version="1.1" id="Layer_1" xmlns:sketch="http://www.bohemiancoding.com/sketch/ns"
	 xmlns="http://www.w3.org/2000/svg" xmlns:xlink="http://www.w3.org/1999/xlink" x="0px" y="0px" viewBox="0 0 512 512"
	 enable-background="new 0 0 512 512" xml:space="preserve">
<title>pause</title>
<desc>Created with Sketch.</desc>
<path d="M372,0H140C62.7,0,0,62.7,0,140v232c0,77.3,62.7,140,140,140h232c77.3,0,140-62.7,140-140V140C512,62.7,449.3,0,372,0z
	 M215,404.4h-70V107h70V404.4z M375,404.4h-70V107h70V404.4z"/>
</svg>
